bicons/scalable/categories/mood-level-yellow.svg

<?xml version="1.0" encoding="UTF-8" standalone="no"?>
<!-- Created with Inkscape (http://www.inkscape.org/) -->

<svg
   xmlns:dc="http://purl.org/dc/elements/1.1/"
   xmlns:cc="http://creativecommons.org/ns#"
   xmlns:rdf="http://www.w3.org/1999/02/22-rdf-syntax-ns#"
   xmlns:svg="http://www.w3.org/2000/svg"
   xmlns="http://www.w3.org/2000/svg"
   xmlns:xlink="http://www.w3.org/1999/xlink"
   xmlns:sodipodi="http://sodipodi.sourceforge.net/DTD/sodipodi-0.dtd"
   xmlns:inkscape="http://www.inkscape.org/namespaces/inkscape"
   width="210mm"
   height="297mm"
   viewBox="0 0 744.09448819 1052.3622047"
   id="svg2"
   version="1.1"
   inkscape:version="0.91 r13725"
   sodipodi:docname="mood-level-yellow.svg"
   inkscape:export-filename="C:\Users\johannes\Documents\Arbeit\RRZE\bi-con\bi-con\scalable\documents\document.png"
   inkscape:export-xdpi="4"
   inkscape:export-ydpi="4">
  <defs
     id="defs4">
    <linearGradient
       inkscape:collect="always"
       id="linearGradient4176">
      <stop
         style="stop-color:#5a6578;stop-opacity:1;"
         offset="0"
         id="stop4178" />
      <stop
         style="stop-color:#9397a2;stop-opacity:1"
         offset="1"
         id="stop4180" />
    </linearGradient>
    <linearGradient
       id="linearGradient2224">
      <stop
         id="stop2226"
         offset="0"
         style="stop-color:#7c7c7c;stop-opacity:1;" />
      <stop
         id="stop2228"
         offset="1"
         style="stop-color:#b8b8b8;stop-opacity:1;" />
    </linearGradient>
    <linearGradient
       id="linearGradient15218">
      <stop
         id="stop15220"
         offset="0"
         style="stop-color:#eeeeef;stop-opacity:1;" />
      <stop
         id="stop2736"
         offset="0.59928656"
         style="stop-color:#d3d7cf;stop-opacity:1;" />
      <stop
         id="stop2738"
         offset="0.82758623"
         style="stop-color:#ffffff;stop-opacity:1;" />
      <stop
         id="stop15222"
         offset="1"
         style="stop-color:#d3d7cf;stop-opacity:1;" />
    </linearGradient>
    <pattern
       y="0"
       x="0"
       height="6"
       width="6"
       patternUnits="userSpaceOnUse"
       id="EMFhbasepattern" />
    <linearGradient
       inkscape:collect="always"
       xlink:href="#linearGradient4176"
       id="linearGradient4182"
       x1="267.44257"
       y1="649.30225"
       x2="517.0686"
       y2="387.07214"
       gradientUnits="userSpaceOnUse"
       gradientTransform="matrix(1.0457517,0,0,1.0411894,-16.732002,-21.656294)" />
  </defs>
  <sodipodi:namedview
     id="base"
     pagecolor="#ffffff"
     bordercolor="#666666"
     borderopacity="1.0"
     inkscape:pageopacity="0.0"
     inkscape:pageshadow="2"
     inkscape:zoom="0.70710678"
     inkscape:cx="305.82143"
     inkscape:cy="410.37502"
     inkscape:document-units="px"
     inkscape:current-layer="layer1"
     showgrid="false"
     showguides="true"
     inkscape:guide-bbox="true"
     inkscape:window-width="1366"
     inkscape:window-height="721"
     inkscape:window-x="-4"
     inkscape:window-y="-4"
     inkscape:window-maximized="1">
    <sodipodi:guide
       position="591,730.00002"
       orientation="0,1"
       id="guide3338" />
    <sodipodi:guide
       position="189,330.00001"
       orientation="0,1"
       id="guide3340" />
    <sodipodi:guide
       position="190,291.00001"
       orientation="1,0"
       id="guide3344" />
    <inkscape:grid
       type="xygrid"
       id="grid3440" />
    <sodipodi:guide
       position="590,295.00001"
       orientation="1,0"
       id="guide3411" />
  </sodipodi:namedview>
  <metadata
     id="metadata7">
    <rdf:RDF>
      <cc:Work
         rdf:about="">
        <dc:format>image/svg+xml</dc:format>
        <dc:type
           rdf:resource="http://purl.org/dc/dcmitype/StillImage" />
        <dc:title />
      </cc:Work>
    </rdf:RDF>
  </metadata>
  <g
     inkscape:label="Ebene 1"
     inkscape:groupmode="layer"
     id="layer1">
    <rect
       style="fill:none;fill-rule:evenodd;stroke:none;stroke-width:1px;stroke-linecap:butt;stroke-linejoin:miter;stroke-opacity:1"
       id="rect3336"
       width="400"
       height="400"
       x="189.14485"
       y="322.27005"
       inkscape:export-xdpi="4.9499998"
       inkscape:export-ydpi="4.9499998" />
    <g
       id="g4157"
       transform="matrix(0.87493167,0,0,0.87493167,48.383805,66.5492)">
      <path
         id="rect4174"
         d="m 229.94727,322.35938 c -22.16,0 -40,17.83997 -40,40 l 0,320.03124 c 0,22.16 17.84,40 40,40 l 6.76171,0 c -43.24527,-67.21226 -36.26037,-156.96149 20.4375,-216.90234 l -0.16406,-0.16406 8.35156,-8.35156 c 0.0692,-0.0692 0.14555,-0.12622 0.21485,-0.19532 l 3.26367,-3.26172 0.16602,0.16407 c 34.05658,-32.23195 77.80721,-48.57423 121.57226,-48.57422 45.30091,0 90.68885,17.33834 125.2168,51.86719 l 1.04687,1.04687 0.0859,0 3.45899,3.45899 c 0.32956,0.32959 0.60719,0.68994 0.93359,1.02148 l 2.82422,2.82422 -0.125,0.125 c 56.46561,60.01484 62.32123,149.88821 19.17187,216.9414 l 6.83008,0 c 22.16,0 40,-17.84 40,-40 l 0,-320.03124 c 0,-22.16001 -17.84,-40 -40,-40 l -320.04687,0 z M 406.375,469.54883 c 0.82265,2.01281 1.29102,4.1915 1.29102,6.45898 l 0,11.92383 c 25.2958,3.14893 49.98641,12.76286 72.14648,28.29492 l 10.48047,-10.48242 C 465.86504,484.77212 436.52954,472.67891 406.375,469.54883 Z m -34.17188,0.28711 c -29.26551,3.52943 -57.65057,15.5217 -81.39648,35.9082 l 10.12695,10.12695 c 21.96789,-15.75084 45.88375,-24.87725 70.08594,-27.91992 l 0,-11.94336 c 0,-2.16089 0.43268,-4.23849 1.18359,-6.17187 z m 35.4629,41.26172 0,79.49023 c 12.40183,6.4476 20.74114,19.32266 20.74414,33.82813 a 12.50125,12.50125 0 0 0 0,0.002 c -5.8e-4,20.96672 -17.2657,38.23185 -38.23243,38.23242 -20.96781,10e-4 -38.2338,-17.2646 -38.23437,-38.23242 a 12.50125,12.50125 0 0 1 0,-0.006 c 0.006,-13.79389 7.55608,-26.18855 19.07617,-32.91797 l 0,-80.375 c -21.94549,3.42518 -43.64002,13.07071 -63.73633,29.48047 l -1.09765,0.89648 -1.66407,2.09375 c -39.83271,50.13606 -43.2585,113.36492 -0.82226,165.82032 l 10.5,12.98046 151.19531,0 10.18164,-12.87695 c 39.75183,-50.27041 42.99228,-113.62422 0.1543,-166.08594 l -1.86328,-2.28125 -0.20899,-0.16601 c -20.36896,-16.183 -42.9009,-26.35085 -65.99218,-29.88281 z m 103.8164,15.63476 -10.90625,10.50391 c 37.4665,52.38197 37.44257,115.78753 6.57031,167.79297 l 18.8379,0 c 33.22621,-55.73333 28.95217,-127.73009 -14.50196,-178.29688 z m -242.19922,0.43946 c -43.50972,50.58204 -48.51179,122.22859 -15.39062,177.85742 l 18.1289,0 C 239.71685,651.15216 244.48405,587.80844 279.72852,537.48633 L 269.2832,527.17188 Z"
         style="opacity:1;fill:url(#linearGradient4182);fill-opacity:1;stroke:none;stroke-width:23;stroke-linecap:butt;stroke-linejoin:round;stroke-miterlimit:4;stroke-dasharray:none;stroke-opacity:1"
         inkscape:connector-curvature="0" />
      <path
         id="path4204"
         d="m 390.55078,456.91602 c -42.29734,-10e-6 -84.59574,16.13589 -116.86719,48.4082 l 26.12891,26.1289 c 22.17851,-18.10999 46.53526,-28.55839 71.20703,-31.99023 l 0,-23.45508 c 0,-9.55013 8.08256,-17.625 17.62695,-17.625 l 1.39258,0 c 9.5444,0 17.62696,8.07484 17.62696,17.625 l 0,23.44727 c 25.84414,3.55023 51.01627,14.54688 73.33789,32.28125 l 26.41211,-26.41211 c -32.27144,-32.27228 -74.5679,-48.4082 -116.86524,-48.4082 z"
         style="opacity:1;fill:#f7e72b;fill-opacity:1;stroke:none;stroke-width:7.19999981;stroke-linecap:butt;stroke-linejoin:miter;stroke-miterlimit:4;stroke-dasharray:none;stroke-opacity:1"
         inkscape:connector-curvature="0" />
      <path
         inkscape:connector-curvature="0"
         id="path4233"
         d="m 511.00674,509.82958 -26.12889,26.12889 c 46.069,56.4186 42.62627,126.92547 -0.0387,180.87985 l 47.86053,0 c 41.77753,-64.07488 34.55101,-150.76631 -21.69293,-207.00874 z"
         style="opacity:1;fill:#ff5a35;fill-opacity:1;stroke:none;stroke-width:7.19999981;stroke-linecap:butt;stroke-linejoin:miter;stroke-miterlimit:4;stroke-dasharray:none;stroke-opacity:1" />
      <path
         inkscape:connector-curvature="0"
         id="path4235"
         d="m 268.86423,509.82958 c -56.24396,56.24249 -63.46877,142.93384 -21.69104,207.00874 l 47.34386,0 c -45.64965,-56.42749 -41.98951,-126.79037 0.7584,-180.59568 l -26.41122,-26.41306 z"
         style="opacity:1;fill:#b7cf1a;fill-opacity:1;stroke:none;stroke-width:7.19999981;stroke-linecap:butt;stroke-linejoin:miter;stroke-miterlimit:4;stroke-dasharray:none;stroke-opacity:1" />
      <path
         id="path4274"
         d="m 388.64648,470.88281 c -2.84009,0 -5.12695,2.2849 -5.12695,5.125 l 0,123.56446 a 25.733126,25.733126 0 0 0 -19.07617,24.8457 25.733126,25.733126 0 0 0 25.73437,25.73242 25.733126,25.733126 0 0 0 25.73243,-25.73242 25.733126,25.733126 0 0 0 -20.74414,-25.24024 l 0,-123.16992 c 0,-2.8401 -2.28687,-5.125 -5.12696,-5.125 l -1.39258,0 z"
         style="opacity:1;fill:#000000;fill-opacity:1;stroke:none;stroke-width:23;stroke-linecap:butt;stroke-linejoin:round;stroke-miterlimit:4;stroke-dasharray:none;stroke-opacity:1"
         inkscape:connector-curvature="0" />
    </g>
  </g>
</svg>

<?xml version="1.0" encoding="UTF-8" standalone="no"?>
<!-- Created with Inkscape (http://www.inkscape.org/) -->

<svg
   xmlns:dc="http://purl.org/dc/elements/1.1/"
   xmlns:cc="http://creativecommons.org/ns#"
   xmlns:rdf="http://www.w3.org/1999/02/22-rdf-syntax-ns#"
   xmlns:svg="http://www.w3.org/2000/svg"
   xmlns="http://www.w3.org/2000/svg"
   xmlns:xlink="http://www.w3.org/1999/xlink"
   xmlns:sodipodi="http://sodipodi.sourceforge.net/DTD/sodipodi-0.dtd"
   xmlns:inkscape="http://www.inkscape.org/namespaces/inkscape"
   width="210mm"
   height="297mm"
   viewBox="0 0 744.09448819 1052.3622047"
   id="svg2"
   version="1.1"
   inkscape:version="0.91 r13725"
   sodipodi:docname="mood-level-yellow.svg"
   inkscape:export-filename="C:\Users\johannes\Documents\Arbeit\RRZE\bi-con\bi-con\scalable\documents\document.png"
   inkscape:export-xdpi="4"
   inkscape:export-ydpi="4">
  <defs
     id="defs4">
    <linearGradient
       inkscape:collect="always"
       id="linearGradient4176">
      <stop
         style="stop-color:#5a6578;stop-opacity:1;"
         offset="0"
         id="stop4178" />
      <stop
         style="stop-color:#9397a2;stop-opacity:1"
         offset="1"
         id="stop4180" />
    </linearGradient>
    <linearGradient
       id="linearGradient2224">
      <stop
         id="stop2226"
         offset="0"
         style="stop-color:#7c7c7c;stop-opacity:1;" />
      <stop
         id="stop2228"
         offset="1"
         style="stop-color:#b8b8b8;stop-opacity:1;" />
    </linearGradient>
    <linearGradient
       id="linearGradient15218">
      <stop
         id="stop15220"
         offset="0"
         style="stop-color:#eeeeef;stop-opacity:1;" />
      <stop
         id="stop2736"
         offset="0.59928656"
         style="stop-color:#d3d7cf;stop-opacity:1;" />
      <stop
         id="stop2738"
         offset="0.82758623"
         style="stop-color:#ffffff;stop-opacity:1;" />
      <stop
         id="stop15222"
         offset="1"
         style="stop-color:#d3d7cf;stop-opacity:1;" />
    </linearGradient>
    <pattern
       y="0"
       x="0"
       height="6"
       width="6"
       patternUnits="userSpaceOnUse"
       id="EMFhbasepattern" />
    <linearGradient
       inkscape:collect="always"
       xlink:href="#linearGradient4176"
       id="linearGradient4182"
       x1="267.44257"
       y1="649.30225"
       x2="517.0686"
       y2="387.07214"
       gradientUnits="userSpaceOnUse"
       gradientTransform="matrix(1.0457517,0,0,1.0411894,-16.732002,-21.656294)" />
  </defs>
  <sodipodi:namedview
     id="base"
     pagecolor="#ffffff"
     bordercolor="#666666"
     borderopacity="1.0"
     inkscape:pageopacity="0.0"
     inkscape:pageshadow="2"
     inkscape:zoom="0.70710678"
     inkscape:cx="155.98622"
     inkscape:cy="435.04861"
     inkscape:document-units="px"
     inkscape:current-layer="layer1"
     showgrid="false"
     showguides="false"
     inkscape:guide-bbox="true"
     inkscape:window-width="1366"
     inkscape:window-height="721"
     inkscape:window-x="-4"
     inkscape:window-y="-4"
     inkscape:window-maximized="1">
    <sodipodi:guide
       position="591,730.00002"
       orientation="0,1"
       id="guide3338" />
    <sodipodi:guide
       position="189,330.00001"
       orientation="0,1"
       id="guide3340" />
    <sodipodi:guide
       position="190,291.00001"
       orientation="1,0"
       id="guide3344" />
    <inkscape:grid
       type="xygrid"
       id="grid3440" />
    <sodipodi:guide
       position="590,295.00001"
       orientation="1,0"
       id="guide3411" />
  </sodipodi:namedview>
  <metadata
     id="metadata7">
    <rdf:RDF>
      <cc:Work
         rdf:about="">
        <dc:format>image/svg+xml</dc:format>
        <dc:type
           rdf:resource="http://purl.org/dc/dcmitype/StillImage" />
        <dc:title></dc:title>
      </cc:Work>
    </rdf:RDF>
  </metadata>
  <g
     inkscape:label="Ebene 1"
     inkscape:groupmode="layer"
     id="layer1">
    <rect
       style="fill:none;fill-rule:evenodd;stroke:none;stroke-width:1px;stroke-linecap:butt;stroke-linejoin:miter;stroke-opacity:1"
       id="rect3336"
       width="400"
       height="400"
       x="189.14485"
       y="322.27005"
       inkscape:export-xdpi="4.9499998"
       inkscape:export-ydpi="4.9499998" />
    <path
       style="opacity:1;fill:url(#linearGradient4182);fill-opacity:1;stroke:none;stroke-width:23;stroke-linecap:butt;stroke-linejoin:round;stroke-miterlimit:4;stroke-dasharray:none;stroke-opacity:1"
       d="M 229.94727 322.35938 C 207.78727 322.35938 189.94727 340.19935 189.94727 362.35938 L 189.94727 682.39062 C 189.94727 704.55062 207.78727 722.39062 229.94727 722.39062 L 236.70898 722.39062 C 193.46371 655.17836 200.44861 565.42913 257.14648 505.48828 L 256.98242 505.32422 L 265.33398 496.97266 C 265.40318 496.90346 265.47953 496.84644 265.54883 496.77734 L 268.8125 493.51562 L 268.97852 493.67969 C 303.0351 461.44774 346.78573 445.10546 390.55078 445.10547 C 435.85169 445.10547 481.23963 462.44381 515.76758 496.97266 L 516.81445 498.01953 L 516.90039 498.01953 L 520.35938 501.47852 C 520.68894 501.80811 520.96657 502.16846 521.29297 502.5 L 524.11719 505.32422 L 523.99219 505.44922 C 580.4578 565.46406 586.31342 655.33743 543.16406 722.39062 L 549.99414 722.39062 C 572.15414 722.39062 589.99414 704.55062 589.99414 682.39062 L 589.99414 362.35938 C 589.99414 340.19937 572.15414 322.35938 549.99414 322.35938 L 229.94727 322.35938 z M 406.375 469.54883 C 407.19765 471.56164 407.66602 473.74033 407.66602 476.00781 L 407.66602 487.93164 C 432.96182 491.08057 457.65243 500.6945 479.8125 516.22656 L 490.29297 505.74414 C 465.86504 484.77212 436.52954 472.67891 406.375 469.54883 z M 372.20312 469.83594 C 342.93761 473.36537 314.55255 485.35764 290.80664 505.74414 L 300.93359 515.87109 C 322.90148 500.12025 346.81734 490.99384 371.01953 487.95117 L 371.01953 476.00781 C 371.01953 473.84692 371.45221 471.76932 372.20312 469.83594 z M 407.66602 511.09766 L 407.66602 590.58789 C 420.06785 597.03549 428.40716 609.91055 428.41016 624.41602 A 12.50125 12.50125 0 0 0 428.41016 624.41797 C 428.40958 645.38469 411.14446 662.64982 390.17773 662.65039 C 369.20992 662.6514 351.94393 645.38579 351.94336 624.41797 A 12.50125 12.50125 0 0 1 351.94336 624.41211 C 351.94951 610.61822 359.49944 598.22356 371.01953 591.49414 L 371.01953 511.11914 C 349.07404 514.54432 327.37951 524.18985 307.2832 540.59961 L 306.18555 541.49609 L 304.52148 543.58984 C 264.68877 593.7259 261.26298 656.95476 303.69922 709.41016 L 314.19922 722.39062 L 465.39453 722.39062 L 475.57617 709.51367 C 515.328 659.24326 518.56845 595.88945 475.73047 543.42773 L 473.86719 541.14648 L 473.6582 540.98047 C 453.28924 524.79747 430.7573 514.62962 407.66602 511.09766 z M 511.48242 526.73242 L 500.57617 537.23633 C 538.04267 589.6183 538.01874 653.02386 507.14648 705.0293 L 525.98438 705.0293 C 559.21059 649.29597 554.93655 577.29921 511.48242 526.73242 z M 269.2832 527.17188 C 225.77348 577.75392 220.77141 649.40047 253.89258 705.0293 L 272.02148 705.0293 C 239.71685 651.15216 244.48405 587.80844 279.72852 537.48633 L 269.2832 527.17188 z "
       id="rect4174" />
    <path
       style="opacity:1;fill:#f7e72b;fill-opacity:1;stroke:none;stroke-width:7.19999981;stroke-linecap:butt;stroke-linejoin:miter;stroke-miterlimit:4;stroke-dasharray:none;stroke-opacity:1"
       d="M 390.55078 456.91602 C 348.25344 456.91601 305.95504 473.05191 273.68359 505.32422 L 299.8125 531.45312 C 321.99101 513.34313 346.34776 502.89473 371.01953 499.46289 L 371.01953 476.00781 C 371.01953 466.45768 379.10209 458.38281 388.64648 458.38281 L 390.03906 458.38281 C 399.58346 458.38281 407.66602 466.45765 407.66602 476.00781 L 407.66602 499.45508 C 433.51016 503.00531 458.68229 514.00196 481.00391 531.73633 L 507.41602 505.32422 C 475.14458 473.05194 432.84812 456.91602 390.55078 456.91602 z "
       id="path4204" />
    <path
       style="opacity:1;fill:#ff5a35;fill-opacity:1;stroke:none;stroke-width:7.19999981;stroke-linecap:butt;stroke-linejoin:miter;stroke-miterlimit:4;stroke-dasharray:none;stroke-opacity:1"
       d="m 511.00674,509.82958 -26.12889,26.12889 c 46.069,56.4186 42.62627,126.92547 -0.0387,180.87985 l 47.86053,0 c 41.77753,-64.07488 34.55101,-150.76631 -21.69293,-207.00874 z"
       id="path4233"
       inkscape:connector-curvature="0" />
    <path
       style="opacity:1;fill:#b7cf1a;fill-opacity:1;stroke:none;stroke-width:7.19999981;stroke-linecap:butt;stroke-linejoin:miter;stroke-miterlimit:4;stroke-dasharray:none;stroke-opacity:1"
       d="m 268.86423,509.82958 c -56.24396,56.24249 -63.46877,142.93384 -21.69104,207.00874 l 47.34386,0 c -45.64965,-56.42749 -41.98951,-126.79037 0.7584,-180.59568 l -26.41122,-26.41306 z"
       id="path4235"
       inkscape:connector-curvature="0" />
    <path
       style="opacity:1;fill:#000000;fill-opacity:1;stroke:none;stroke-width:23;stroke-linecap:butt;stroke-linejoin:round;stroke-miterlimit:4;stroke-dasharray:none;stroke-opacity:1"
       d="M 388.64648 470.88281 C 385.80639 470.88281 383.51953 473.16771 383.51953 476.00781 L 383.51953 599.57227 A 25.733126 25.733126 0 0 0 364.44336 624.41797 A 25.733126 25.733126 0 0 0 390.17773 650.15039 A 25.733126 25.733126 0 0 0 415.91016 624.41797 A 25.733126 25.733126 0 0 0 395.16602 599.17773 L 395.16602 476.00781 C 395.16602 473.16771 392.87915 470.88281 390.03906 470.88281 L 388.64648 470.88281 z "
       id="path4274" />
  </g>
</svg>
